; ---- Brodeuse CNC Singer -- genere depuis postproc/tests/test_carre.dst
; Cadence     : 400 points/min
; Cadre       : 130 x 180 mm
; Rapport Z   : 2.00:1
;
; Z est un axe ROTATIF en degres d'arbre principal.
; 360 deg = 1 point. Z ne revient jamais a zero.
;
; AVANT DE LANCER :
;   - pied a repriser monte, griffes abaissees
;   - tension du fil reduite
;   - cadre serre, tissu tendu
;   - aiguille indexee au point mort haut (homing Z sur Hall)

G21
G90
G94
G0 X0 Y0

G0 X-10.0000 Y10.0000
G0 X-20.0000 Y20.0000
G1 X-16.9000 Y20.0000 Z180.000 F144000
G1 Z360.000 F144000
G1 X-13.8000 Y20.0000 Z540.000 F144000
G1 Z720.000 F144000
G1 X-10.8000 Y20.0000 Z900.000 F144000
G1 Z1080.000 F144000
G1 X-7.7000 Y20.0000 Z1260.000 F144000
G1 Z1440.000 F144000
G1 X-4.6000 Y20.0000 Z1620.000 F144000
G1 Z1800.000 F144000
G1 X-1.5000 Y20.0000 Z1980.000 F144000
G1 Z2160.000 F144000
G1 X1.5000 Y20.0000 Z2340.000 F144000
G1 Z2520.000 F144000
G1 X4.6000 Y20.0000 Z2700.000 F144000
G1 Z2880.000 F144000
G1 X7.7000 Y20.0000 Z3060.000 F144000
G1 Z3240.000 F144000
G1 X10.8000 Y20.0000 Z3420.000 F144000
G1 Z3600.000 F144000
G1 X13.8000 Y20.0000 Z3780.000 F144000
G1 Z3960.000 F144000
G1 X16.9000 Y20.0000 Z4140.000 F144000
G1 Z4320.000 F144000
G1 X20.0000 Y20.0000 Z4500.000 F144000
G1 Z4680.000 F144000
G1 X20.0000 Y16.9000 Z4860.000 F144000
G1 Z5040.000 F144000
G1 X20.0000 Y13.8000 Z5220.000 F144000
G1 Z5400.000 F144000
G1 X20.0000 Y10.8000 Z5580.000 F144000
G1 Z5760.000 F144000
G1 X20.0000 Y7.7000 Z5940.000 F144000
G1 Z6120.000 F144000
G1 X20.0000 Y4.6000 Z6300.000 F144000
G1 Z6480.000 F144000
G1 X20.0000 Y1.5000 Z6660.000 F144000
G1 Z6840.000 F144000
G1 X20.0000 Y-1.5000 Z7020.000 F144000
G1 Z7200.000 F144000
G1 X20.0000 Y-4.6000 Z7380.000 F144000
G1 Z7560.000 F144000
G1 X20.0000 Y-7.7000 Z7740.000 F144000
G1 Z7920.000 F144000
G1 X20.0000 Y-10.8000 Z8100.000 F144000
G1 Z8280.000 F144000
G1 X20.0000 Y-13.8000 Z8460.000 F144000
G1 Z8640.000 F144000
G1 X20.0000 Y-16.9000 Z8820.000 F144000
G1 Z9000.000 F144000
G1 X20.0000 Y-20.0000 Z9180.000 F144000
G1 Z9360.000 F144000
G1 X16.9000 Y-20.0000 Z9540.000 F144000
G1 Z9720.000 F144000
G1 X13.8000 Y-20.0000 Z9900.000 F144000
G1 Z10080.000 F144000
G1 X10.8000 Y-20.0000 Z10260.000 F144000
G1 Z10440.000 F144000
G1 X7.7000 Y-20.0000 Z10620.000 F144000
G1 Z10800.000 F144000
G1 X4.6000 Y-20.0000 Z10980.000 F144000
G1 Z11160.000 F144000
G1 X1.5000 Y-20.0000 Z11340.000 F144000
G1 Z11520.000 F144000
G1 X-1.5000 Y-20.0000 Z11700.000 F144000
G1 Z11880.000 F144000
G1 X-4.6000 Y-20.0000 Z12060.000 F144000
G1 Z12240.000 F144000
G1 X-7.7000 Y-20.0000 Z12420.000 F144000
G1 Z12600.000 F144000
G1 X-10.8000 Y-20.0000 Z12780.000 F144000
G1 Z12960.000 F144000
G1 X-13.8000 Y-20.0000 Z13140.000 F144000
G1 Z13320.000 F144000
G1 X-16.9000 Y-20.0000 Z13500.000 F144000
G1 Z13680.000 F144000
G1 X-20.0000 Y-20.0000 Z13860.000 F144000
G1 Z14040.000 F144000
G1 X-20.0000 Y-16.9000 Z14220.000 F144000
G1 Z14400.000 F144000
G1 X-20.0000 Y-13.8000 Z14580.000 F144000
G1 Z14760.000 F144000
G1 X-20.0000 Y-10.8000 Z14940.000 F144000
G1 Z15120.000 F144000
G1 X-20.0000 Y-7.7000 Z15300.000 F144000
G1 Z15480.000 F144000
G1 X-20.0000 Y-4.6000 Z15660.000 F144000
G1 Z15840.000 F144000
G1 X-20.0000 Y-1.5000 Z16020.000 F144000
G1 Z16200.000 F144000
G1 X-20.0000 Y1.5000 Z16380.000 F144000
G1 Z16560.000 F144000
G1 X-20.0000 Y4.6000 Z16740.000 F144000
G1 Z16920.000 F144000
G1 X-20.0000 Y7.7000 Z17100.000 F144000
G1 Z17280.000 F144000
G1 X-20.0000 Y10.8000 Z17460.000 F144000
G1 Z17640.000 F144000
G1 X-20.0000 Y13.8000 Z17820.000 F144000
G1 Z18000.000 F144000
G1 X-20.0000 Y16.9000 Z18180.000 F144000
G1 Z18360.000 F144000
G1 X-20.0000 Y20.0000 Z18540.000 F144000
G1 Z18720.000 F144000

; ---- CHANGEMENT DE COULEUR #1
G0 X0 Y0
M0 ; changer le fil puis reprendre
G92 Z0
G0 X-20.0000 Y20.0000

G0 X-10.0000 Y10.0000
G0 X0.0000 Y0.0000
G1 X3.3000 Y0.0000 Z180.000 F144000
G1 Z360.000 F144000
G1 X6.7000 Y0.0000 Z540.000 F144000
G1 Z720.000 F144000
G1 X10.0000 Y0.0000 Z900.000 F144000
G1 Z1080.000 F144000
G1 X10.0000 Y-3.3000 Z1260.000 F144000
G1 Z1440.000 F144000
G1 X10.0000 Y-6.7000 Z1620.000 F144000
G1 Z1800.000 F144000
G1 X10.0000 Y-10.0000 Z1980.000 F144000
G1 Z2160.000 F144000
; TRIM -- coupe du fil
G0 X10.0000 Y0.0000
G0 X10.0000 Y10.0000
G0 X10.0000 Y20.0000
G1 X10.0000 Y30.0000 Z2340.000 F144000
G1 Z2520.000 F144000

; ---- fin du motif
G0 X0 Y0
M0 ; retirer le cadre
M2
